X:1
T: Church Hill
C:
R:Jig
Q:180
K:D
M:6/8
L:1/16
d2c2A2 A4D2|F2A2D2 F2E2D2|d2c2A2 A4B2|d2c2A2 G2E2D2|d2c2A2 A4D2|F2A2D2 F2E2D2|d2c2A2 A2B2c2|d2c2A2 G2E2D2|
d2c2A2 A4D2|F2A2D2 F2E2D2|d2c2A2 A4B2|d2c2A2 G2E2D2|d2c2A2 A4D2|F2A2D2 F2E2D2|d2c2A2 A2B2c2|d2c2A2 G2E2D2|
D2E2D2 c4A2|d2e2d2 c4c2|D2E2D2 c4e2|d2c2A2 G2E2D2|D2E2D2 c2B2c2|d2e2d2 c2d2e2|fed2f2 edc2e2|d2c2A2 G2E2D2|
D2E2D2 c4A2|d2e2d2 c4c2|D2E2D2 c4e2|d2c2A2 G2E2D2|D2E2D2 c2B2c2|d2e2d2 c2d2e2|fed2f2 edc2e2|d2c2A2 G2E2D2||
